lib/healthicons/icons/solid/blood/blood_ab_n.svg

<svg fill="none" height="48" viewBox="0 0 48 48" width="48" xmlns="http://www.w3.org/2000/svg"><g fill="#333"><path clip-rule="evenodd" d="m20.3879 5.53462c1.9688-2.04616 5.2554-2.04616 7.2242 0l.5277.54848h5.1904c2.5728 0 4.6698 2.0738 4.6698 4.6458v4.7711h-2v-4.7711c0-1.45505-1.1891-2.6458-2.6698-2.6458h-5.6159c-.2719 0-.5321-.11072-.7206-.30665l-.8228-.85512c-1.182-1.22844-3.1598-1.22844-4.3418 0l-.8228.85512c-.1885.19593-.4487.30665-.7206.30665h-5.2857c-1.6631 0-3 1.3376-3 2.9738v21.9693c0 1.6362 1.3369 2.9738 3 2.9738h18c1.6631 0 3-1.3376 3-2.9738v-10.5262h2v10.5262c0 2.7532-2.2448 4.9738-5 4.9738h-18c-2.7552 0-5-2.2207-5-4.9738v-21.9693c0-2.75314 2.2448-4.9738 5-4.9738h4.8602z" fill-rule="evenodd"/><path d="m15 37h18c2.2091 0 4-1.7791 4-3.9738v-3.5262l-4.5-2.5-5.5 1.5-6.5 1.5-6.9773.3672c-1.4142.0745-2.5227 1.2429-2.5227 2.659 0 2.1947 1.7909 3.9738 4 3.9738z"/><g clip-rule="evenodd" fill-rule="evenodd"><path d="m27 28.5 5.5-1.5 4.5 2.5v3.5262c0 2.1947-1.7909 3.9738-4 3.9738h-18c-2.2091 0-4-1.7791-4-3.9738 0-1.4161 1.1085-2.5845 2.5227-2.659l6.9773-.3672zm8 2.1768-2.7594-1.533-4.7144 1.2857c-.0253.0069-.0509.0134-.0765.0193l-6.5 1.5c-.1132.0261-.2285.0423-.3446.0484l-6.9773.3673c-.3519.0185-.6278.3093-.6278.6617 0 1.0777.883 1.9738 2 1.9738h18c1.117 0 2-.8961 2-1.9738z"/><path d="m23 44v-8h2v8z"/><path d="m30 40h-12v-2h12z"/><path d="m34.0689 28.6418c-1.294-.753-3.1544-1.2003-5.5608.2194-2.9571 1.7447-5.7421 2.1974-8.5838 2.2578-1.2344.0263-2.4948-.0216-3.7712-.07-.1752-.0067-.3506-.0133-.5264-.0198-1.4679-.0542-2.9769-.0971-4.5851-.0301l-.0832-1.9983c1.6917-.0705 3.2671-.0247 4.7421.0298.1784.0065.3551.0132.5301.0199 1.2835.0486 2.4803.0939 3.6512.069 2.6271-.0559 5.0422-.4658 7.6101-1.9808 3.1186-1.84 5.7582-1.2874 7.5829-.2255.8877.5166 1.5697 1.1429 2.0274 1.634.2303.2471.4079.4643.5301.6231.0612.0795.1088.1447.1426.1922.0168.0238.0302.0431.0402.0576l.0122.0181.0042.0062.0023.0034c.0003.0004.0005.0009-.8338.5521s-.8341.5516-.8338.552l-.0015-.0022c-.0036-.0052-.0104-.015-.0203-.0289-.0199-.028-.0523-.0726-.0969-.1305-.0894-.1162-.2265-.2844-.4083-.4795-.3665-.3931-.8985-.878-1.5703-1.269z"/><path d="m18.5 14c.3973 0 .7569.2351.9162.5991l2.6162 5.98c.0063.0135.0123.0272.018.041l.8658 1.979c.2213.506-.0094 1.0956-.5154 1.317s-1.0956-.0094-1.317-.5153l-.6128-1.4008h-3.942l-.6128 1.4008c-.2214.5059-.811.7367-1.317.5153s-.7367-.811-.5154-1.317l.8658-1.979c.0057-.0138.0117-.0275.018-.041l2.6162-5.98c.1593-.364.5189-.5991.9162-.5991zm-1.096 6h2.192l-1.096-2.5052z"/><path d="m24 15c0-.5523.4477-1 1-1h3.125c1.6476 0 2.875 1.4049 2.875 3 0 .7511-.2722 1.46-.7322 2 .46.5399.7322 1.2488.7322 2 0 1.595-1.2274 3-2.875 3h-3.125c-.2652 0-.5196-.1054-.7071-.2929-.1875-.1876-.2929-.4419-.2929-.7071zm4.125 3c.4234 0 .875-.386.875-1 0-.6141-.4516-1-.875-1h-2.125v2zm-2.125 2h2.125c.4234 0 .875.3859.875 1 0 .614-.4516 1-.875 1h-2.125z"/><path d="m33 19c0-.5523.4477-1 1-1h3c.5523 0 1 .4477 1 1 0 .5522-.4477 1-1 1h-3c-.5523 0-1-.4478-1-1z"/></g></g></svg>

<svg width="48" height="48" viewBox="0 0 48 48" fill="none" xmlns="http://www.w3.org/2000/svg">
<path d="M20.3879 5.53462C22.3567 3.48846 25.6433 3.48846 27.6121 5.53462L28.1398 6.0831H33.3302C35.903 6.0831 38 8.1569 38 10.7289V15.5H36V10.7289C36 9.27385 34.8109 8.0831 33.3302 8.0831H27.7143C27.4424 8.0831 27.1822 7.97238 26.9937 7.77645L26.1709 6.92133C24.9889 5.69289 23.0111 5.69289 21.8291 6.92133L21.0063 7.77645C20.8178 7.97238 20.5576 8.0831 20.2857 8.0831H15C13.3369 8.0831 12 9.4207 12 11.0569V28.9709C13.3017 28.9498 14.5326 28.9875 15.7005 29.0306C15.8789 29.0371 16.0556 29.0438 16.2306 29.0505C17.5139 29.0991 18.711 29.1444 19.8818 29.1195C22.5089 29.0636 24.924 28.6537 27.4919 27.1387C30.6105 25.2987 33.2501 25.8513 35.0748 26.9132C35.4135 27.1103 35.7222 27.3234 36 27.5388V22.5H38V33.0262C38 35.7794 35.7552 38 33 38H30V40H25V44H23V40H18V38H15C12.2448 38 10 35.7793 10 33.0262V11.0569C10 8.30376 12.2448 6.0831 15 6.0831H19.8602L20.3879 5.53462Z" fill="#333333"/>
<path fill-rule="evenodd" clip-rule="evenodd" d="M19.4162 14.5991C19.2569 14.2351 18.8973 14 18.5 14C18.1027 14 17.7431 14.2351 17.5838 14.5991L14.9676 20.5791C14.9613 20.5926 14.9553 20.6063 14.9496 20.6201L14.0838 22.5991C13.8625 23.1051 14.0932 23.6947 14.5992 23.9161C15.1052 24.1375 15.6948 23.9067 15.9162 23.4008L16.529 22H20.471L21.0838 23.4008C21.3052 23.9067 21.8948 24.1375 22.4008 23.9161C22.9068 23.6947 23.1375 23.1051 22.9162 22.5991L22.0504 20.6201C22.0447 20.6063 22.0387 20.5926 22.0324 20.5791L19.4162 14.5991ZM18.5 17.4948L19.596 20H17.404L18.5 17.4948Z" fill="#333333"/>
<path fill-rule="evenodd" clip-rule="evenodd" d="M24 15C24 14.4477 24.4477 14 25 14H28.125C29.7726 14 31 15.4049 31 17C31 17.7511 30.7278 18.46 30.2678 19C30.7278 19.5399 31 20.2488 31 21C31 22.595 29.7726 24 28.125 24H25C24.7348 24 24.4804 23.8946 24.2929 23.7071C24.1054 23.5195 24 23.2652 24 23V15ZM28.125 18C28.5484 18 29 17.614 29 17C29 16.3859 28.5484 16 28.125 16H26V18H28.125ZM29 21C29 21.614 28.5484 22 28.125 22H26V20H28.125C28.5484 20 29 20.3859 29 21Z" fill="#333333"/>
<path d="M34 18C33.4477 18 33 18.4477 33 19C33 19.5522 33.4477 20 34 20H37C37.5523 20 38 19.5522 38 19C38 18.4477 37.5523 18 37 18H34Z" fill="#333333"/>
</svg>
